src/xmb/monochrome/menu_log.svg

<?xml version="1.0" encoding="UTF-8" standalone="no"?>
<!-- Generator: Adobe Illustrator 16.0.0, SVG Export Plug-In . SVG Version: 6.00 Build 0)  -->

<svg
   xmlns:dc="http://purl.org/dc/elements/1.1/"
   xmlns:cc="http://creativecommons.org/ns#"
   xmlns:rdf="http://www.w3.org/1999/02/22-rdf-syntax-ns#"
   xmlns:svg="http://www.w3.org/2000/svg"
   xmlns="http://www.w3.org/2000/svg"
   xmlns:sodipodi="http://sodipodi.sourceforge.net/DTD/sodipodi-0.dtd"
   xmlns:inkscape="http://www.inkscape.org/namespaces/inkscape"
   version="1.1"
   id="Calque_1"
   x="0px"
   y="0px"
   width="64px"
   height="64px"
   viewBox="0 0 64 64"
   enable-background="new 0 0 64 64"
   xml:space="preserve"
   sodipodi:docname="menu_log.svg"
   inkscape:version="0.91 r13725"
   inkscape:export-filename="/media/alfrix/DATOS/xmb/menu_log.png"
   inkscape:export-xdpi="90"
   inkscape:export-ydpi="90"><metadata
     id="metadata8"><rdf:RDF><cc:Work
         rdf:about=""><dc:format>image/svg+xml</dc:format><dc:type
           rdf:resource="http://purl.org/dc/dcmitype/StillImage" /></cc:Work></rdf:RDF></metadata><defs
     id="defs6" /><sodipodi:namedview
     pagecolor="#808080"
     bordercolor="#666666"
     borderopacity="1"
     objecttolerance="10"
     gridtolerance="10"
     guidetolerance="10"
     inkscape:pageopacity="0"
     inkscape:pageshadow="2"
     inkscape:window-width="1024"
     inkscape:window-height="697"
     id="namedview4"
     showgrid="true"
     inkscape:zoom="10.429825"
     inkscape:cx="18.602974"
     inkscape:cy="30.462317"
     inkscape:window-x="0"
     inkscape:window-y="0"
     inkscape:window-maximized="1"
     inkscape:current-layer="Calque_1"><inkscape:grid
       type="xygrid"
       id="grid3699" /></sodipodi:namedview><path
     style="fill:#ffffff"
     d="M 20 14 C 18.895 14 18 14.895 18 16 L 18 48 C 18 49.105 18.895 50 20 50 L 44 50 C 45.105 50 46 49.105 46 48 L 46 24 L 36 14 L 20 14 z M 34 16 L 44 26 L 40.003906 26 L 36 26 C 34.895 26 34 25.105 34 24 L 34 20 L 34 16 z M 34.671875 28.914062 L 37.992188 29.578125 L 40.421875 32.007812 L 41.085938 35.328125 L 30.414062 46 L 25 46 L 24 46 L 24 39.585938 L 34.671875 28.914062 z M 35.328125 31.085938 L 26 40.414062 L 26 44 L 29.585938 44 L 38.914062 34.671875 L 38.578125 32.992188 L 37.007812 31.421875 L 35.328125 31.085938 z "
     id="File_1_" /></svg>

<svg xmlns="http://www.w3.org/2000/svg" xml:space="preserve" width="64" height="64"><path d="M20 14a2 2 0 0 0-2 2v32a2 2 0 0 0 2 2h24a2 2 0 0 0 2-2V24L36 14zm14 2 10 10h-8a2 2 0 0 1-2-2zm.672 12.914 3.32.664 2.43 2.43.664 3.32L30.414 46H24v-6.414zm.656 2.172L26 40.414V44h3.586l9.328-9.328-.336-1.68-1.57-1.57z" style="fill:#fff"/></svg>
